X:39
T:La dona
C:Tielman Susato
B:Tielman Susato: Danserye (1551) no. 39
R:Pavane
Z:Transcribed by Frank Nordberg - http://www.musicaviva.com
F:http://abc.musicaviva.com/tunes/susato-tielman/susato-1551-39.abc
M:4/2
L:1/2
K:Ddor
V:1
D|D2A,D|C3A,|CDEF|E3F|EDE^F|G2FE|
D/E/F/E/D^C/B,/|^C2z::D|EEF/E/F/G/|AGFE/D/|CF2E|F2z::F|E3C|
D/C/D/E/FE|DCB,2|A,2zC|DEFG|AG/F/ E/F/G/F/|E/D/D2^C|D2z:|
V:2
G,|G,2zB,|A,3A,|A,B,CA,|C2zC|CA,CD|D2C>B,|
A,/G,/A,2^G,|A,2z::A,|CCC>_B,|A,E,F,>G,|A,B,C2|A,2z::C|C3G,|
_B,2A,E,|F,A,2G,|A,2zA,|A,CA,G,/F,/|E,D,C,D,|E,A,A,2|^F,2z:|
V:3
D,|D,>E,F,G,|E,3F,|E,D,A,F,|G,2zA,|G,F,G,A,|B,2A,G,|
F,/E,/D,/C,/D,2|E,2z::F,|G,G,A,/G,/A,/_B,/|C>_B,A,2-|A,G,/F,/G,2|F,2z::A,|G,3E,|
F,>G,A,G,|F,E,D,2|C,2zE,|F,G,A,B,|CB,/A,/ G,/A,/_B,/A,/|G,/F,/E,/D,/E,2|D,2z:|
V:4
G,,|G,,2D,G,,|A,,3D,|C,B,,A,,D,|C,2zF,,|C,D,C,/E,/D,|G,,2A,,C,|
D,2B,,2|A,,2z::D,|C,C,F,,2|F,,C,D,>E,|F,D,C,2|F,,2z::F,,|C,3C,|
_B,,>A,,F,,C,|D,A,,B,,>A,,|F,,2zA,,|D,C,F,E,|A,,B,,C,G,,|C,D,A,,2|D,2z:|
W:
W:
W:  From Musica Viva - http://www.musicaviva.com
W:  the Internet center for free sheet music downloads.
